dist/svgs/crypto-icons/icons/trig.svg

<?xml version="1.0" encoding="UTF-8" standalone="yes"?>
<svg xmlns="http://www.w3.org/2000/svg" xmlns:xlink="http://www.w3.org/1999/xlink" width="512px" height="512px" viewBox="0 0 384 384" version="1.1">
  <g id="surface1">
    <path style=" stroke:none;fill-rule:nonzero;fill:rgb(0%,0%,0%);fill-opacity:1;" d="M 208.664062 169.957031 C 208.664062 160.660156 201.128906 153.121094 191.832031 153.121094 C 182.535156 153.121094 174.996094 160.660156 174.996094 169.957031 C 174.996094 176.132812 178.378906 181.816406 183.808594 184.757812 L 179.011719 221.199219 L 204.648438 221.199219 L 199.851562 184.757812 C 205.28125 181.816406 208.664062 176.132812 208.664062 169.957031 Z M 191.832031 97.042969 C 174.875 97.042969 161.082031 111.28125 161.082031 128.78125 L 161.082031 133.285156 L 222.582031 133.285156 L 222.582031 128.78125 C 222.582031 111.28125 208.785156 97.042969 191.832031 97.042969 Z M 191.832031 97.042969 "/>
    <path style=" stroke:none;fill-rule:nonzero;fill:rgb(0%,0%,0%);fill-opacity:1;" d="M 343.332031 32.078125 C 343.332031 32.078125 330.945312 27.601562 321.480469 19.859375 C 312.015625 12.113281 303.179688 0.46875 303.179688 0.46875 L 80.480469 0.46875 C 80.480469 0.46875 71.648438 12.117188 62.183594 19.859375 C 52.71875 27.601562 40.328125 32.078125 40.328125 32.078125 C 40.328125 32.078125 14.402344 122.738281 26.332031 184.128906 C 38.261719 245.519531 57.078125 287.625 103.886719 330.300781 C 142.429688 365.519531 191.824219 383.1875 191.832031 383.191406 C 191.839844 383.1875 241.234375 365.519531 279.777344 330.300781 C 326.585938 287.625 345.398438 245.519531 357.332031 184.128906 C 369.261719 122.742188 343.332031 32.078125 343.332031 32.078125 Z M 265.6875 225.144531 C 265.6875 235.386719 257.386719 243.6875 247.148438 243.6875 L 136.515625 243.6875 C 126.273438 243.6875 117.972656 235.386719 117.972656 225.144531 L 117.972656 146.953125 C 117.972656 139.40625 124.09375 133.285156 131.644531 133.285156 L 141.804688 133.285156 L 141.804688 128.78125 C 141.804688 100.652344 164.246094 77.769531 191.832031 77.769531 C 219.414062 77.769531 241.855469 100.652344 241.855469 128.78125 L 241.855469 133.285156 L 252.019531 133.285156 C 259.566406 133.285156 265.6875 139.40625 265.6875 146.953125 Z M 265.6875 225.144531 "/>
  </g>
</svg>

<svg xmlns="http://www.w3.org/2000/svg" viewBox="0 0 384 384"><path d="M208.664 169.957c0-9.297-7.535-16.836-16.832-16.836s-16.836 7.54-16.836 16.836c0 6.176 3.383 11.86 8.813 14.8l-4.797 36.442h25.636l-4.796-36.441a16.835 16.835 0 008.812-14.801zm-16.832-72.914c-16.957 0-30.75 14.238-30.75 31.738v4.504h61.5v-4.504c0-17.5-13.797-31.738-30.75-31.738zm0 0"/><path d="M343.332 32.078s-12.387-4.476-21.852-12.219c-9.464-7.746-18.3-19.39-18.3-19.39H80.48s-8.832 11.648-18.296 19.39c-9.465 7.743-21.856 12.22-21.856 12.22s-25.926 90.66-13.996 152.05c11.93 61.39 30.746 103.496 77.555 146.172 38.543 35.219 87.937 52.887 87.945 52.89.008-.003 49.402-17.671 87.945-52.89 46.809-42.676 65.621-84.781 77.555-146.172 11.93-61.387-14-152.05-14-152.05zm-77.644 193.067c0 10.242-8.301 18.542-18.54 18.542H136.516c-10.243 0-18.543-8.3-18.543-18.542v-78.192c0-7.547 6.12-13.668 13.672-13.668h10.16v-4.504c0-28.129 22.441-51.011 50.027-51.011 27.582 0 50.023 22.882 50.023 51.011v4.504h10.165c7.546 0 13.667 6.121 13.667 13.668zm0 0"/></svg>
